icon/gr/duplicate.svg

<svg xmlns="http://www.w3.org/2000/svg" width="24" height="24"><path fill="none" stroke="#000" stroke-width="2" d="M4.5 17H1V1h16v3.5M7 7h16v16H7V7Zm8 4v8-8Zm-4 4h8-8Z"/></svg>

<svg xmlns="http://www.w3.org/2000/svg" viewBox="0 0 24 24" height="1em" width="1em">
  <path fill="none" stroke="#000" stroke-width="2" d="M4.5,17 L1,17 L1,1 L1,1 L17,1 L17,4.5 M7,7 L23,7 L23,23 L7,23 L7,7 Z M15,11 L15,19 L15,11 Z M11,15 L19,15 L11,15 Z"/>
</svg>
